X:25
T: Das Schwabentoechterlein
N: Q0073C
O: Mitteleuropa, Luxemburg, Boxhorn
N: Schlusspause korrigiert.
R: Ballade, Weglaufen, Schwangerschaft, Rueckkehr
M: 3/8
L: 1/16
K: D
A | A2AAAA | A2AAAA
B4A2 | F2E2F2 | E4z4
E2F2 | G4B2B2 | B4A2G2 | F4A2B2 | A2F2
F2D2 | E4G2F2 | E4D4 | G4B2e2 | d4z

